!!!!SEGMENT: pl-kk--kk-i-27--001_anonim--missa-sine-nomine-kyrie.krn
!!!cenid: 17xx:2219
!!!COM: Anonim
!!!COM-rismID: pe30004985
!!!CDT:
!!!CNT:
!!!OPR: Missa Sine Nomine
!!!OTL: Kyrie
!!!OMV: 001
!!!PDT:
!!!AGN: Sacred; Mass
!!!SMS-siglum: PL-Kk
!!!SMS-shelfmark: Kk.I.27
!!!SMS-shelfwork: 001-001 M
!!!SMS-variant:
!!!SMS-altvar:
!!!NIFC-rismSourceID: 1001156089
!!!NIFC-islandoraID: pl-kk:15429
!!!URL-pdf-islandora: https://repozytorium.nifc.pl/islandora/object/pl-kk%3A15429/datastream/PDF/view
!!!URL-scan:
!!!ONB-nifc: UWAGA: części Mszy: 1. Kyrie, 2. Et in terra, 3. Sanctus, 4. Agnus Dei.
!!!AIN: 1 alto 1 empty 1 tenor 1 vox
!!!key:
**kern	**text	**kern	**text	**kern	**text	**kern	**text
*part4	*part4	*part3	*part3	*part2	*part2	*part1	*part1
*staff4	*staff4	*staff3	*staff3	*staff2	*staff2	*staff1	*staff1
*Iempty	*	*Itenor	*	*Ialto	*	*Ivox	*
*I"Baſso.	*	*I"Tenore	*	*I"Alto.	*	*I"Canto.	*
*I'B	*	*I'T	*	*I'A	*	*I'C	*
*clefF4	*	*clefC4	*	*clefC3	*	*clefC1	*
*k[]	*	*k[]	*	*k[]	*	*k[]	*
*a:	*	*a:	*	*a:	*	*a:	*
*M2/1	*	*M2/1	*	*M2/1	*	*M2/1	*
*met(c|)	*	*met(c|)	*	*met(c|)	*	*met(c|)	*
*	*	*2\right	*	*2\right	*	*	*
!LO:TX:a:i:t=à Capella	!	!LO:TX:a:i:t=à Capellà.	!	!LO:TX:a:i:t=à Capellà	!	!LO:TX:a:i:t=à Capella	!
!	!	!LO:TX:t=P:problem=kreska pseudotaktowa	!	!	!	!	!
0r	.	1r	.	2.fn\	Ky-	00r	.
!	!	!	!	!LO:TX:t=P:problem=kreska pseudotaktowa	!	!	!
.	.	.	.	4f\	-ri-	.	.
.	.	2.c\	Ky-	2e\	-e	.	.
.	.	.	.	1a\	e-	.	.
!	!	!LO:TX:t=P:problem=kreska pseudotaktowa	!	!	!	!	!
.	.	4c\	-ri-	.	.	.	.
=1-	=1-	=1-	=1-	=1-	=1-	=1-	=1-
!LO:TX:t=P:problem=kreska pseudotaktowa	!	!	!	!	!	!	!
1r	.	2Bn\	-e	.	.	.	.
!	!	!	!	!LO:TX:t=P:problem=kreska pseudotaktowa	!	!	!
.	.	1en	e-	2g#X\	-lei-	.	.
*2\right	*	*	*	*	*	*	*
2.F\	Ky-	.	.	4a,<\	-son	.	.
.	.	.	.	4a\	e-	.	.
.	.	1d\	-lei-	4a\	-le-	.	.
!LO:TX:t=P:problem=kreska pseudotaktowa	!	!	!	!LO:TX:t=P:problem=kreska pseudotaktowa	!	!	!
4F\	-ri-	.	.	4a\	-i-	.	.
=2-	=2-	=2-	=2-	=2-	=2-	=2-	=2-
!	!	!	!	!	!	!LO:TX:t=P:problem=kreska pseudotaktowa	!
2En\	-e	.	.	2g#X,<\	-son	0r	.
!	!	!	!	!LO:TX:t=P:problem=kreska pseudotaktowa	!	!	!
1A	e-	2c\	.	2a\	e-	.	.
!	!	!LO:TX:t=P:problem=kreska pseudotaktowa	!	!	!	!	!
.	.	1B	.	(>2d\	-lei-	.	.
!LO:TX:t=P:problem=kreska pseudotaktowa	!	!	!	!	!	!	!
2G#X\	-lei-	.	.	2e\)	.	.	.
=3-	=3-	=3-	=3-	=3-	=3-	=3-	=3-
*	*	*	*	*	*	*2\right	*
!	!	!	!	!LO:TX:t=P:problem=kreska pseudotaktowa	!	!	!
4A,<\	-son	2A\	-son	1e,<	-son	2.cc\	Ky-
4A\	e-	.	.	.	.	.	.
4A\	-le-	4r	.	.	.	.	.
!LO:TX:t=P:problem=kreska pseudotaktowa	!	!LO:TX:t=P:problem=kreska pseudotaktowa	!	!	!	!LO:TX:t=P:problem=kreska pseudotaktowa	!
4A\	-i-	4A\	e-	.	.	4cc\	-ri-
!	!	!	!	!LO:TX:t=P:problem=kreska pseudotaktowa	!	!	!
2G#X,<\	-son	2B\	-lei-	1r	.	4bn\	-e
.	.	.	.	.	.	4b\	e-
*	*ij	*	*	*	*	*	*
!LO:TX:t=P:problem=kreska pseudotaktowa	!	!LO:TX:t=P:problem=kreska pseudotaktowa	!	!	!	!	!
2E\	e-	2B\	-son	.	.	1een\	-le-
=4-	=4-	=4-	=4-	=4-	=4-	=4-	=4-
2A\	-le-	2c,<\	.	2.a\	Ky-	.	.
2D/	-i-	4f\	Ky-	.	.	1dd	-i-
!	!	!LO:TX:t=P:problem=kreska pseudotaktowa	!	!LO:TX:t=P:problem=kreska pseudotaktowa	!	!	!
.	.	4f\	-ri-	4a\	-ri-	.	.
4Gny,<\	-son	2d\	-e	2gny\	-e	.	.
*	*Xij	*	*	*	*	*	*
4F\	s-	.	.	.	.	.	.
!	!	!	!	!LO:TX:t=P:problem=kreska pseudotaktowa	!	!	!
4E\	-le-	2e\	e-	2g\	e-	1cc\	.
!LO:TX:t=P:problem=kreska pseudotaktowa	!	!	!	!	!	!	!
4C/	-i-	.	.	.	.	.	.
=5-	=5-	=5-	=5-	=5-	=5-	=5-	=5-
1G,<	-son.	1d	-lei-	2.g\	-le-	.	.
.	.	.	.	.	.	2b\	.
.	.	.	.	4g\	-i-	.	.
!	!	!LO:TX:t=P:problem=kreska pseudotaktowa	!	!LO:TX:t=P:problem=kreska pseudotaktowa	!	!LO:TX:t=P:problem=kreska pseudotaktowa	!
(<4C/	Ky-	1e,<	-son	1g,<	-son	1cc,<	-son
4D/)	.	.	.	.	.	.	.
(<4E/	-ri-	.	.	.	.	.	.
!LO:TX:t=P:problem=kreska pseudotaktowa	!	!	!	!	!	!	!
4F/)	.	.	.	.	.	.	.
=6-	=6-	=6-	=6-	=6-	=6-	=6-	=6-
*	*	*	*ij	*	*	*	*
2G\	-e	2d\	Ky-	2g\	Ky-	(>4g\	Ky-
.	.	.	.	.	.	4a\	.
!	!	!LO:TX:t=P:problem=kreska pseudotaktowa	!	!LO:TX:t=P:problem=kreska pseudotaktowa	!	!	!
4r	.	2d\	-ri-	2g\	-ri-	(>4b\)	-ri-
!LO:TX:t=P:problem=kreska pseudotaktowa	!	!	!	!	!	!	!
4G\	e-	.	.	.	.	4cc\)	.
2Fn\	-lei-	2d\	-e	2a\	-e	2dd\	-e
!LO:TX:t=P:problem=kreska pseudotaktowa	!	!LO:TX:t=P:problem=kreska pseudotaktowa	!	!LO:TX:t=P:problem=kreska pseudotaktowa	!	!	!
2F\	.	2d\	e-	2a\	e-	4r	.
!	!	!	!	!	!	!LO:TX:t=P:problem=kreska pseudotaktowa	!
.	.	.	.	.	.	4dd\	e-
!LO:LB:g=original	!	!	!	!LO:LB:g=original	!	!	!
=7-	=7-	=7-	=7-	=7-	=7-	=7-	=7-
2E\	-son	2e\	-le-	(>2g\	-lei-	2cc\	-le-
!LO:TX:t=P:problem=kreska pseudotaktowa	!	!LO:TX:t=P:problem=kreska pseudotaktowa	!	!LO:TX:t=P:problem=kreska pseudotaktowa	!	!LO:TX:t=P:problem=kreska pseudotaktowa	!
2F#X\	e-	2A\	-i-	2a\)	.	2cc\	-i-
4G\	-lei-	2B\	-son	2d\	-son	2b,<\	-son
*	*	*	*Xij	*	*	*	*
4D\	.	.	.	.	.	.	.
1G\	.	4r	.	4r	.	4r	.
!	!	!LO:TX:t=P:problem=kreska pseudotaktowa	!	!LO:TX:t=P:problem=kreska pseudotaktowa	!	!LO:TX:t=P:problem=kreska pseudotaktowa	!
.	.	4G/	e-	4B/	e-	4b\	e-
*	*	*custos:A	*	*	*	*	*
!	!	!LO:LB:g=original	!	!	!	!	!
=8-	=8-	=8-	=8-	=8-	=8-	=8-	=8-
.	.	(>2A\	-lei-	2c\	-lei-	2a\	-le-
!LO:TX:t=P:problem=kreska pseudotaktowa	!	!	!	!	!	!LO:TX:t=P:problem=kreska pseudotaktowa	!
2Fn\	.	2B\)	.	2d\	-son	2dd\	-i-
!	!	!LO:TX:t=P:problem=kreska pseudotaktowa	!	!LO:TX:t=P:problem=kreska pseudotaktowa	!	!	!
2E\	-son	1c,<	-son	1e,<	.	4g,</	-son
.	.	.	.	.	.	4g/	e-
4r	.	.	.	.	.	1cc\	-lei-
!LO:TX:t=P:problem=kreska pseudotaktowa	!	!	!	!	!	!	!
4E\	e-	.	.	.	.	.	.
=9-	=9-	=9-	=9-	=9-	=9-	=9-	=9-
(>2D\	-lei-	2.d\	Ky-	2f\	Ky-	.	.
!LO:TX:t=P:problem=kreska pseudotaktowa	!	!	!	!LO:TX:t=P:problem=kreska pseudotaktowa	!	!	!
2G\)	.	.	.	2g\	-ri-	1bn	.
!	!	!LO:TX:t=P:problem=kreska pseudotaktowa	!	!	!	!	!
.	.	4d\	-ri-	.	.	.	.
2C,</	-son	4e,<\	-e	2e\	-e	.	.
.	.	4e\	e-	.	.	.	.
!	!	!	!	!LO:TX:t=P:problem=kreska pseudotaktowa	!	!	!
4F\	Ky-	4e\	-le-	2c/	e-	1a\	.
!LO:TX:t=P:problem=kreska pseudotaktowa	!	!	!	!	!	!	!
4F\	-ri-	4e\	-i-	.	.	.	.
=10-	=10-	=10-	=10-	=10-	=10-	=10-	=10-
!	!	!LO:TX:t=P:problem=kreska pseudotaktowa	!	!	!	!	!
2BB/	-e	1d,<	-ſon	2d\	-le-	.	.
!	!	!	!	!LO:TX:t=P:problem=kreska pseudotaktowa	!	!	!
2E\	e-	.	.	2B/	-i-	2g#X\	.
*	*	*	*ij	*	*	*	*
!	!	!	!	!	!	!LO:TX:t=P:problem=kreska pseudotaktowa	!
2AA/	-le-	2.c\	Ky-	4c,</	-son	1a	-son
.	.	.	.	4e/	e-	.	.
!LO:TX:t=P:problem=kreska pseudotaktowa	!	!	!	!	!	!	!
2A\	-i-	.	.	4a\	-le-	.	.
!	!	!LO:TX:t=P:problem=kreska pseudotaktowa	!	!LO:TX:t=P:problem=kreska pseudotaktowa	!	!	!
.	.	4c\	-ri-	4g\	-i-	.	.
=11-	=11-	=11-	=11-	=11-	=11-	=11-	=11-
!	!	!	!	!	!	!LO:TX:t=P:problem=kreska pseudotaktowa	!
!	!	!	!	!	!	!LO:TX:a:t=I.	!
2E\	-son	2B\	-e	2g#X,<\	-son	1r	.
!LO:TX:t=P:problem=kreska pseudotaktowa	!	!	!	!	!	!	!
2r	.	1e	e-	4g#\	Ky-	.	.
.	.	.	.	4g#\	-ri-	.	.
!	!	!	!	!	!	!LO:LB:g=original	!
2.F\	Ky-	.	.	2a\	-e	2.a\	Ky-
.	.	1d\	-le-	4r	.	.	.
!LO:TX:t=P:problem=kreska pseudotaktowa	!	!	!	!LO:TX:t=P:problem=kreska pseudotaktowa	!	!LO:TX:t=P:problem=kreska pseudotaktowa	!
4F\	-ri-	.	.	4A/	e-	4a\	-ri-
=12-	=12-	=12-	=12-	=12-	=12-	=12-	=12-
2E\	-e	.	.	2B/	-le-	2g#X\	-e
!LO:TX:t=P:problem=kreska pseudotaktowa	!	!LO:TX:t=P:problem=kreska pseudotaktowa	!	!	!	!LO:TX:t=P:problem=kreska pseudotaktowa	!
2A\	e-	2c\	-i-	4c/	-i-	2a\	e-
.	.	.	.	4d/	.	.	.
2E\	-le-	2B,<\	-ſon	2e,<\	-son	2g#X\	-lei-
*	*	*	*Xij	*	*	*	*
!LO:TX:t=P:problem=kreska pseudotaktowa	!	!LO:TX:t=P:problem=kreska pseudotaktowa	!	!LO:TX:t=P:problem=kreska pseudotaktowa	!	!LO:TX:t=P:problem=kreska pseudotaktowa	!
2AA/	-i-	2c\	e-	2e\	e-	2a\	-son
=13-	=13-	=13-	=13-	=13-	=13-	=13-	=13-
1.E,<	-son	2B\	-le-	2e\	-le-	2g#X,</	.
!	!	!LO:TX:t=P:problem=kreska pseudotaktowa	!	!	!	!	!
.	.	2c\	-i-	2e\	-i-	4a\	Ky-
.	.	.	.	.	.	4a\	-ri-
.	.	2B,<\	-son	2e,<\	-son	2g#X,</	-e
!LO:TX:t=P:problem=kreska pseudotaktowa	!	!LO:TX:t=P:problem=kreska pseudotaktowa	!	!LO:TX:t=P:problem=kreska pseudotaktowa	!	!	!
2E\	e-	2B\	e-	2e\	e-	2g#/	e-
=14-	=14-	=14-	=14-	=14-	=14-	=14-	=14-
1.A	-lei-	1.c	-le-	1.e	-le-	1.a	-lei-
!	!	!LO:TX:t=P:problem=kreska pseudotaktowa	!	!	!	!	!
2A\	-son.	2c\	-i-	2e\	-i-	2a\	-son.
=15-	=15-	=15-	=15-	=15-	=15-	=15-	=15-
0E;>	.	0Bn;>	-son.	0e;>	-son	0g#X;>	.
!LO:LB:g=original	!	!LO:LB:g=original	!	!LO:LB:g=original	!	!	!
=16||-	=16||-	=16||-	=16||-	=16||-	=16||-	=16||-	=16||-
*M2/1	*	*M2/1	*	*M2/1	*	*M2/1	*
*met(c|)	*	*met(c|)	*	*met(c|)	*	*met(c|)	*
!	!	!LO:TX:t=P:problem=kreska pseudotaktowa	!	!	!	!	!
00r	.	0r	.	1gny	Chri-	00r	.
.	.	.	.	2e\	-ste	.	.
!	!	!	!	!LO:TX:t=P:problem=kreska pseudotaktowa	!	!	!
.	.	.	.	2c/	e-	.	.
=17-	=17-	=17-	=17-	=17-	=17-	=17-	=17-
.	.	1c	Chri-	(>2e\	-lei-	.	.
.	.	.	.	2f#X\)	.	.	.
.	.	2Bn\	-ste	4g,<\	-son	.	.
.	.	.	.	4d\	e-	.	.
!	!	!LO:TX:t=P:problem=kreska pseudotaktowa	!	!	!	!	!
.	.	2G/	e-	1g\	-lei-	.	.
=18-	=18-	=18-	=18-	=18-	=18-	=18-	=18-
!LO:TX:t=P:problem=kreska pseudotaktowa	!	!	!	!	!	!	!
0r	.	2A\	-lei-	.	.	00r	.
!	!	!LO:TX:t=P:problem=kreska pseudotaktowa	!	!	!	!	!
.	.	2B\	-son	1fn	.	.	.
.	.	4c,<\	.	.	.	.	.
*	*	*	*ij	*	*	*	*
.	.	4G/	e-	.	.	.	.
!	!	!	!	!LO:TX:t=P:problem=kreska pseudotaktowa	!	!	!
.	.	1c\	-le-	2e\	.	.	.
=19-	=19-	=19-	=19-	=19-	=19-	=19-	=19-
1G	Chri-	.	.	1d	.	.	.
.	.	2B\	-i-	.	.	.	.
!	!	!LO:TX:t=P:problem=kreska pseudotaktowa	!	!LO:TX:t=P:problem=kreska pseudotaktowa	!	!	!
2E,<\	-ste	1c,<	-son	1e,<	-son	.	.
*	*	*	*Xij	*	*	*	*
!LO:TX:t=P:problem=kreska pseudotaktowa	!	!	!	!	!	!	!
2C/	e-	.	.	.	.	.	.
=20-	=20-	=20-	=20-	=20-	=20-	=20-	=20-
2E\	-lei-	2c\	X-	2g\	X-	1cc	Chri-
!LO:TX:t=P:problem=kreska pseudotaktowa	!	!LO:TX:t=P:problem=kreska pseudotaktowa	!	!	!	!	!
2F#X\	-son	2A,<\	-te	2a,<\	-te	.	.
*	*	*	*ij	*	*	*	*
4G,\	.	2B\	X-	2d\	.	2bn\	-ste
4D\	e-	.	.	.	.	.	.
!	!	!	!	!	!	!LO:TX:t=P:problem=kreska pseudotaktowa	!
1G\	-lei-	4B\	-te	4d,</	.	2gny\	e-
*	*	*	*Xij	*	*	*	*
!	!	!	!	!LO:TX:t=P:problem=kreska pseudotaktowa	!	!	!
.	.	4B\	e-	4B/	e-	.	.
=21-	=21-	=21-	=21-	=21-	=21-	=21-	=21-
.	.	(>2A\	-lei-	(>2c\	-lei-	2a\	-lei-
!LO:TX:t=P:problem=kreska pseudotaktowa	!	!	!	!LO:TX:t=P:problem=kreska pseudotaktowa	!	!LO:TX:t=P:problem=kreska pseudotaktowa	!
2Fn\	.	2d\)	.	2d\)	.	2b\	-son
!	!	!LO:TX:t=P:problem=kreska pseudotaktowa	!	!	!	!	!
2E,<\	-son	1G,<	-son	2e,<\	-son	4cc,<\	.
.	.	.	.	.	.	4g\	e-
*	*ij	*	*	*	*	*	*
!LO:TX:t=P:problem=kreska pseudotaktowa	!	!	!	!LO:TX:t=P:problem=kreska pseudotaktowa	!	!	!
2E\	e-	.	.	2g\	e-	1cc\	-lei-
=22-	=22-	=22-	=22-	=22-	=22-	=22-	=22-
1D	-lei-	1r	.	2.fn\	-lei-	.	.
.	.	.	.	.	.	2b\	-son
.	.	.	.	4f\	-son	.	.
!LO:TX:t=P:problem=kreska pseudotaktowa	!	!	!	!LO:TX:t=P:problem=kreska pseudotaktowa	!	!LO:TX:t=P:problem=kreska pseudotaktowa	!
1C,<	-son	4r	.	1e	.	1cc	.
*	*Xij	*	*	*	*	*	*
.	.	4C/	e-	.	.	.	.
.	.	4E/	-le-	.	.	.	.
!	!	!LO:TX:t=P:problem=kreska pseudotaktowa	!	!	!	!	!
.	.	4F#X/	-i-	.	.	.	.
=23-	=23-	=23-	=23-	=23-	=23-	=23-	=23-
0r	.	2G,</	-son	0r	.	4r	.
.	.	.	.	.	.	4g/	e-
!	!	!LO:TX:t=P:problem=kreska pseudotaktowa	!	!	!	!	!
.	.	2G/	Chri-	.	.	4b/	-lei-
!	!	!	!	!	!	!LO:TX:t=P:problem=kreska pseudotaktowa	!
.	.	.	.	.	.	4cc#X/	.
!	!	!	!	!	!	!LO:LB:g=original	!
.	.	4Fn/	-ste	.	.	2dd,<\	-son
.	.	4F/	e-	.	.	.	.
!	!	!	!	!	!	!LO:TX:t=P:problem=kreska pseudotaktowa	!
.	.	4F/	-le-	.	.	2dd\	Chri-
!	!	!LO:TX:t=P:problem=kreska pseudotaktowa	!	!	!	!	!
.	.	4F/	-i-	.	.	.	.
=24-	=24-	=24-	=24-	=24-	=24-	=24-	=24-
!	!	!	!	!LO:TX:t=P:problem=kreska pseudotaktowa	!	!	!
4r	.	2E,</	-son	1r	.	4ccn,<\	-ste
4C/	e-	.	.	.	.	4cc\	e-
4E/	-le-	2e\	X-	.	.	4cc\	-le-
!	!	!	!	!	!	!LO:TX:t=P:problem=kreska pseudotaktowa	!
4F#X\	-i-	.	.	.	.	4cc\	-i-
!	!	!LO:TX:t=P:problem=kreska pseudotaktowa	!	!	!	!	!
2G,<\	-son	1d	-te	4r	.	2b,<\	-son
.	.	.	.	4G/	e-	.	.
!LO:TX:t=P:problem=kreska pseudotaktowa	!	!	!	!	!	!LO:TX:t=P:problem=kreska pseudotaktowa	!
2G\	Chri-	.	.	4B/	-le-	2b\	e-
!	!	!	!	!LO:TX:t=P:problem=kreska pseudotaktowa	!	!	!
.	.	.	.	4c#X/	-i-	.	.
=25-	=25-	=25-	=25-	=25-	=25-	=25-	=25-
!	!	!LO:TX:t=P:problem=kreska pseudotaktowa	!	!	!	!	!
4Fn\	-ste	1r	.	2d,<\	-son	2a\	-lei-
4F\	e-	.	.	.	.	.	.
!	!	!	!	!LO:TX:t=P:problem=kreska pseudotaktowa	!	!	!
4F\	-le-	.	.	2d\	Chri-	2b\	-son
!LO:TX:t=P:problem=kreska pseudotaktowa	!	!	!	!	!	!	!
4F\	-i-	.	.	.	.	.	.
!	!	!LO:LB:g=original	!	!LO:LB:g=original	!	!LO:TX:t=P:problem=kreska pseudotaktowa	!
!	!	!LO:TX:t=P:problem=kreska pseudotaktowa	!	!	!	!	!
2E,<\	-son	1e	X-	4cny/	-ste	1cc,<	.
.	.	.	.	4G/	e-	.	.
*	*ij	*	*	*	*	*	*
!LO:TX:t=P:problem=kreska pseudotaktowa	!	!	!	!LO:TX:t=P:problem=kreska pseudotaktowa	!	!	!
2A\	e-	.	.	[<2c\	-lei-	.	.
=26-	=26-	=26-	=26-	=26-	=26-	=26-	=26-
2D\	-le-	1fn,<	-te	2c\]	.	1r	.
!LO:TX:t=P:problem=kreska pseudotaktowa	!	!	!	!	!	!	!
2G\	-i-	.	.	2B/	.	.	.
!	!	!LO:TX:t=P:problem=kreska pseudotaktowa	!	!LO:TX:t=P:problem=kreska pseudotaktowa	!	!	!
2C,</	-son	1e	e-	1c,<	-son	4r	.
*	*Xij	*	*	*	*	*	*
.	.	.	.	.	.	4c/	e-
!LO:TX:t=P:problem=kreska pseudotaktowa	!	!	!	!	!	!	!
2c\	Chri-	.	.	.	.	4e/	-le-
*custos:Bn	*	*	*	*	*	*	*
!LO:LB:g=original	!	!	!	!	!	!LO:TX:t=P:problem=kreska pseudotaktowa	!
.	.	.	.	.	.	4f#X/	-i-
=27-	=27-	=27-	=27-	=27-	=27-	=27-	=27-
(>4B\	-ste	1d	-lei-	1r	.	2g,</	-son
4G\	.	.	.	.	.	.	.
!	!	!	!	!	!	!LO:TX:t=P:problem=kreska pseudotaktowa	!
4A\	.	.	.	.	.	2g/	X-
4B\)	e-	.	.	.	.	.	.
2c\	-lei-	2e\	-son	1c	Chri-	4e,</	-te
.	.	.	.	.	.	4g/	e-
!LO:TX:t=P:problem=kreska pseudotaktowa	!	!LO:TX:t=P:problem=kreska pseudotaktowa	!	!	!	!	!
2C/	.	2rc	.	.	.	4fn/	-le-
!	!	!	!	!	!	!LO:TX:t=P:problem=kreska pseudotaktowa	!
.	.	.	.	.	.	4e/	-i-
=28-	=28-	=28-	=28-	=28-	=28-	=28-	=28-
*lig	*	*	*	*	*	*	*
1G	.	1G	X-	4B/	-ste	2d,</	-son
.	.	.	.	4G/	.	.	.
!	!	!	!	!	!	!LO:TX:t=P:problem=kreska pseudotaktowa	!
.	.	.	.	4A/	.	2d/	e-
!	!	!	!	!LO:TX:t=P:problem=kreska pseudotaktowa	!	!	!
.	.	.	.	4B/	.	.	.
1GG	.	4E,</	-te	2c/	.	2e/	-lei-
.	.	4G/	e-	.	.	.	.
!	!	!	!	!LO:TX:t=P:problem=kreska pseudotaktowa	!	!LO:TX:t=P:problem=kreska pseudotaktowa	!
.	.	4c\	-le-	2G/	e-	2e/	-son
!	!	!LO:TX:t=P:problem=kreska pseudotaktowa	!	!	!	!	!
.	.	4c\	-i-	.	.	.	.
*Xlig	*	*	*	*	*	*	*
=29-	=29-	=29-	=29-	=29-	=29-	=29-	=29-
1.G	.	4B,<\	-son	1.G	-le-	2d,</	.
.	.	4B\	e-	.	.	.	.
!	!	!	!	!	!	!LO:TX:t=P:problem=kreska pseudotaktowa	!
.	.	1c	-le-	.	.	2e/	e-
.	.	.	.	.	.	2.d/	-le-
2GG/	.	2B\	-i-	2G/	-i-	.	.
.	.	.	.	.	.	4d/	-i-
=30-	=30-	=30-	=30-	=30-	=30-	=30-	=30-
0C;>	-son	0c;>	-son.	0G;>	-son.	0e;>	-son.
!	!	!	!	!	!	!LO:LB:g=original	!
=31||-	=31||-	=31||-	=31||-	=31||-	=31||-	=31||-	=31||-
*M2/1	*	*M2/1	*	*M2/1	*	*M2/1	*
*met(c|)	*	*met(c|)	*	*met(c|)	*	*met(c|)	*
00r	.	00r	.	0r	.	2r	.
.	.	.	.	.	.	1cc	Ky-
!	!	!	!	!	!	!LO:TX:t=P:problem=kreska pseudotaktowa	!
.	.	.	.	.	.	2bn\	-ri-
=32-	=32-	=32-	=32-	=32-	=32-	=32-	=32-
.	.	.	.	2r	.	2a\	-e
!	!	!	!	!	!	!LO:TX:t=P:problem=kreska pseudotaktowa	!
.	.	.	.	1f	Ky-	2a\	e-
.	.	.	.	.	.	2b\	-lei-
!	!	!	!	!LO:TX:t=P:problem=kreska pseudotaktowa	!	!LO:TX:t=P:problem=kreska pseudotaktowa	!
.	.	.	.	2e\	-ri-	2cc#X\	-son
=33-	=33-	=33-	=33-	=33-	=33-	=33-	=33-
!	!	!LO:TX:t=P:problem=kreska pseudotaktowa	!	!	!	!	!
00r	.	00r	.	2d,<\	-e	2dd,<\	.
!	!	!	!	!LO:TX:t=P:problem=kreska pseudotaktowa	!	!LO:TX:t=P:problem=kreska pseudotaktowa	!
.	.	.	.	2d\	e-	2dd\	e-
.	.	.	.	2e\	-lei-	2ccn\	-lei-
!	!	!	!	!LO:TX:t=P:problem=kreska pseudotaktowa	!	!	!
.	.	.	.	2f#X\	-son	4dd\	.
!	!	!	!	!	!	!LO:TX:t=P:problem=kreska pseudotaktowa	!
.	.	.	.	.	.	4cc\	.
=34-	=34-	=34-	=34-	=34-	=34-	=34-	=34-
.	.	.	.	2g,<\	.	2b,<\	-son
!	!	!	!	!	!	!LO:TX:t=P:problem=kreska pseudotaktowa	!
.	.	.	.	2g\	e-	2g\	e-
.	.	.	.	2fn\	-lei-	2a\	-le-
!	!	!	!	!	!	!LO:TX:t=P:problem=kreska pseudotaktowa	!
.	.	.	.	4g\	.	2bn\	-ij-
!	!	!	!	!LO:TX:t=P:problem=kreska pseudotaktowa	!	!	!
.	.	.	.	4f\	.	.	.
=35-	=35-	=35-	=35-	=35-	=35-	=35-	=35-
!LO:TX:t=P:problem=kreska pseudotaktowa	!	!	!	!	!	!	!
0r	.	2r	.	1e	.	2cc,<\	-son
*	*	*	*	*	*	*	*ij
.	.	1c	Ky-	.	.	2e/	e-
.	.	.	.	2.d\	.	2f#X/	-le-
!	!	!LO:TX:t=P:problem=kreska pseudotaktowa	!	!	!	!LO:TX:t=P:problem=kreska pseudotaktowa	!
.	.	2Bn\	-ri-	.	.	2g#X\	-i-
!	!	!	!	!LO:TX:t=P:problem=kreska pseudotaktowa	!	!	!
.	.	.	.	4d\	.	.	.
!	!	!	!	!LO:LB:g=original	!	!	!
=36-	=36-	=36-	=36-	=36-	=36-	=36-	=36-
2r	.	2A,<\	-e	2c,</	-son	2a,<\	-son
*	*	*	*	*	*	*	*Xij
!	!	!LO:TX:t=P:problem=kreska pseudotaktowa	!	!LO:TX:t=P:problem=kreska pseudotaktowa	!	!	!
1F	Ky-	2A\	e-	2c/	Ky-	2a\	e-
.	.	2B\	-le-	2d\	-ri-	2.gn/	-lei-
!LO:TX:t=P:problem=kreska pseudotaktowa	!	!LO:TX:t=P:problem=kreska pseudotaktowa	!	!LO:TX:t=P:problem=kreska pseudotaktowa	!	!	!
2E\	-ri-	2c#X\	-i-	2e\	-e	.	.
.	.	.	.	.	.	4g/	-son
=37-	=37-	=37-	=37-	=37-	=37-	=37-	=37-
!	!	!	!	!	!	!LO:TX:t=P:problem=kreska pseudotaktowa	!
2D,<\	-e	2d,<\	-son	2f\	e-	1fn	.
!LO:TX:t=P:problem=kreska pseudotaktowa	!	!LO:TX:t=P:problem=kreska pseudotaktowa	!	!LO:TX:t=P:problem=kreska pseudotaktowa	!	!	!
2D\	e-	2d\	e-	2f\	-lei-	.	.
!	!	!	!	!	!	!LO:LB:g=original	!
2E\	-le-	2cn\	-lei-	4g,<\	-son	2r	.
*	*	*	*	*	*ij	*	*
.	.	.	.	4e\	e-	.	.
!LO:TX:t=P:problem=kreska pseudotaktowa	!	!	!	!	!	!LO:TX:t=P:problem=kreska pseudotaktowa	!
2F#X\	-i-	4d\	.	2A/	-lei-	2dd\	e-
!	!	!LO:TX:t=P:problem=kreska pseudotaktowa	!	!	!	!	!
.	.	4c\	.	.	.	.	.
!	!	!LO:LB:g=original	!	!	!	!	!
=38-	=38-	=38-	=38-	=38-	=38-	=38-	=38-
!	!	!	!	!LO:TX:t=P:problem=kreska pseudotaktowa	!	!	!
2G,<\	-son	2B,<\	-son	1B,<	-son	2dd\	-le-
*	*	*	*	*	*Xij	*	*
!LO:TX:t=P:problem=kreska pseudotaktowa	!	!LO:TX:t=P:problem=kreska pseudotaktowa	!	!	!	!	!
2G\	e-	(>2G/	e-	.	.	2dd\	-i-
2Fn\	-lei-	2A\)	-lei-	2d\	Ky-	4dd\	-son
.	.	.	.	.	.	4cc\	.
!	!	!	!	!LO:TX:t=P:problem=kreska pseudotaktowa	!	!	!
4G\	-son	2B\	-son	2d\	-ri-	4b\	.
!LO:TX:t=P:problem=kreska pseudotaktowa	!	!	!	!	!	!	!
4F\	.	.	.	.	.	4a\	.
=39-	=39-	=39-	=39-	=39-	=39-	=39-	=39-
!	!	!LO:TX:t=P:problem=kreska pseudotaktowa	!	!	!	!	!
2E,<\	.	1c,<	.	2e\	-e	2g,<\	.
!	!	!	!	!LO:TX:t=P:problem=kreska pseudotaktowa	!	!	!
4A\	Ky-	.	.	2e\	e-	1cc	Ky-
4G\	.	.	.	.	.	.	.
4Fn\	-ri-	1d	Ky-	(>2f,<\	-lei-	.	.
4D\	-e-	.	.	.	.	.	.
!	!	!	!	!	!	!LO:TX:t=P:problem=kreska pseudotaktowa	!
4G\	.	.	.	2d\)	-son	[>2b\	-ri-
!LO:TX:t=P:problem=kreska pseudotaktowa	!	!	!	!	!	!	!
4F\	.	.	.	.	.	.	.
!LO:LB:g=original	!	!	!	!	!	!	!
=40-	=40-	=40-	=40-	=40-	=40-	=40-	=40-
4E\	.	1c	-ri-	2e,<\	.	2b\]	.
4C/	.	.	.	.	.	.	.
!	!	!	!	!LO:TX:t=P:problem=kreska pseudotaktowa	!	!	!
4F\	-lei-	.	.	2c\	e-	1a	-e
!LO:TX:t=P:problem=kreska pseudotaktowa	!	!	!	!	!	!	!
4E\	.	.	.	.	.	.	.
!	!	!LO:TX:t=P:problem=kreska pseudotaktowa	!	!	!	!	!
4D/	.	1B	-e	2d\	-le-	.	.
4BB/	.	.	.	.	.	.	.
!	!	!	!	!LO:TX:t=P:problem=kreska pseudotaktowa	!	!LO:TX:t=P:problem=kreska pseudotaktowa	!
4E\	.	.	.	2e\	-i-	2g#X\	e-
!LO:TX:t=P:problem=kreska pseudotaktowa	!	!	!	!	!	!	!
4D\	.	.	.	.	.	.	.
=41-	=41-	=41-	=41-	=41-	=41-	=41-	=41-
4C/	.	2c\	e-	2e,<\	-son	2.a\	-lei-
4BB/	.	.	.	.	.	.	.
!	!	!LO:TX:t=P:problem=kreska pseudotaktowa	!	!LO:TX:t=P:problem=kreska pseudotaktowa	!	!	!
4C/	.	2c\	-lei-	2e\	Ky-	.	.
4AA/	-son	.	.	.	.	4a\	-son
!LO:TX:t=P:problem=kreska pseudotaktowa	!	!	!	!	!	!	!
1E	.	2B,<\	-son	2e\	-ri-	2g#X,<\	.
!	!	!	!	!LO:TX:t=P:problem=kreska pseudotaktowa	!	!LO:TX:t=P:problem=kreska pseudotaktowa	!
.	.	1e\	Ky-	2e\	-e	2g#\	Ky-
=42-	=42-	=42-	=42-	=42-	=42-	=42-	=42-
!LO:TX:a:t=5.	!	!	!	!	!	!	!
00r	.	.	.	2f#X\	e-	2a\	-ri-
!	!	!LO:TX:t=P:problem=kreska pseudotaktowa	!	!LO:TX:t=P:problem=kreska pseudotaktowa	!	!LO:TX:t=P:problem=kreska pseudotaktowa	!
.	.	2d\	-ri-	2g#X\	-lei-	2b\	-e
.	.	2c\	-e	2a,<\	-son	2.cc\	e-
!	!	!LO:TX:t=P:problem=kreska pseudotaktowa	!	!	!	!	!
.	.	2A\	e-	1a\	Ky-	.	.
!	!	!	!	!	!	!LO:TX:t=P:problem=kreska pseudotaktowa	!
.	.	.	.	.	.	4ee\	.
=43-	=43-	=43-	=43-	=43-	=43-	=43-	=43-
.	.	2B\	-lei-	.	.	2dd\	-le-
!	!	!LO:TX:a:t=P:problem=# above	!	!	!	!	!
!	!	!LO:TX:t=P:problem=kreska pseudotaktowa	!	!LO:TX:t=P:problem=kreska pseudotaktowa	!	!LO:TX:t=P:problem=kreska pseudotaktowa	!
.	.	2c#X\	.	2gny\	-ri-	2ee\	-i-
.	.	2d,<\	-son	2f#X\	-e	2a,<\	-son
*	*	*	*ij	*	*	*	*
!	!	!	!	!LO:TX:t=P:problem=kreska pseudotaktowa	!	!LO:TX:t=P:problem=kreska pseudotaktowa	!
.	.	2d\	e-	2d\	e-	2a\	e-
=44-	=44-	=44-	=44-	=44-	=44-	=44-	=44-
!LO:TX:t=P:problem=kreska pseudotaktowa	!	!	!	!	!	!	!
1r	.	2cn\	-le-	2e\	-lei-	2a\	-lei-
!	!	!	!	!LO:TX:t=P:problem=kreska pseudotaktowa	!	!	!
.	.	4d\	-i-	2f#X\	.	2a\	-son
.	.	4c\	.	.	.	.	.
!	!	!	!	!LO:LB:g=original	!	!LO:TX:t=P:problem=kreska pseudotaktowa	!
2r	.	2B,<\	-son	2g,<\	-son	1b	.
*	*	*	*Xij	*	*	*	*
!	!	!LO:TX:t=P:problem=kreska pseudotaktowa	!	!LO:TX:t=P:problem=kreska pseudotaktowa	!	!	!
1G\	Ky-	2G/	e-	2B/	e-	.	.
=45-	=45-	=45-	=45-	=45-	=45-	=45-	=45-
.	.	2A\	-le-	2c\	.	1r	.
!LO:TX:t=P:problem=kreska pseudotaktowa	!	!	!	!	!	!	!
2F\	-ri-	2B\	-i-	2d\	-lei-	.	.
!	!	!LO:TX:t=P:problem=kreska pseudotaktowa	!	!LO:TX:t=P:problem=kreska pseudotaktowa	!	!	!
2E\	-e	1c	-son	1e,<	-son	2r	.
!LO:TX:t=P:problem=kreska pseudotaktowa	!	!	!	!	!	!	!
2C/	e-	.	.	.	.	1cc\	Ky-
=46-	=46-	=46-	=46-	=46-	=46-	=46-	=46-
2D\	-lei-	1r	.	2fny\	Ky-	.	.
!LO:TX:t=P:problem=kreska pseudotaktowa	!	!	!	!	!	!LO:TX:t=P:problem=kreska pseudotaktowa	!
2E\	-son	.	.	2g\	-ri-	2b\	-ri-
(>4F\	.	4r	.	4c,</	-e	1a	-e
4E,<\)	.	4A\	e-	4f\	e-	.	.
4F\	e-	4d\	-le-	4f\	-le-	.	.
!LO:TX:t=P:problem=kreska pseudotaktowa	!	!	!	!LO:TX:t=P:problem=kreska pseudotaktowa	!	!	!
4D\	-lei-	4d\	-i-	4f\	-i-	.	.
=47-	=47-	=47-	=47-	=47-	=47-	=47-	=47-
*	*	*	*	*	*	*lig	*
2E\	.	1B,<	-son	1e,<	-son	1g#X	e-
!LO:TX:t=P:problem=kreska pseudotaktowa	!	!	!	!	!	!	!
2E\	-son	.	.	.	.	.	.
!	!	!LO:TX:t=P:problem=kreska pseudotaktowa	!	!	!	!	!
2C,</	.	1c	Ky-	2e\	Ky-	1a	.
!LO:TX:t=P:problem=kreska pseudotaktowa	!	!	!	!LO:TX:t=P:problem=kreska pseudotaktowa	!	!	!
2AA/	e-	.	.	2e\	-ri-	.	.
*	*	*	*	*	*	*Xlig	*
=48-	=48-	=48-	=48-	=48-	=48-	=48-	=48-
!	!	!	!	!	!	!LO:TX:t=P:problem=# above	!
2E\	-lei-	1B	-ri-	2e\	-e	1g#X	-lei-
4E\	-son	.	.	2e\	e-	.	.
!LO:TX:t=P:problem=kreska pseudotaktowa	!	!	!	!	!	!	!
4E\	e-	.	.	.	.	.	.
!	!	!	!	!LO:TX:t=P:problem=kreska pseudotaktowa	!	!	!
2A\	-lei-	2c\	-e	[<1e	-lei-	2a,<\	-son
*	*	*	*	*	*	*	*ij
2G\	.	2B\	e-	.	.	2b\	e-
=49-	=49-	=49-	=49-	=49-	=49-	=49-	=49-
1.Fn	.	1c	-le-	1.e]	.	0a	-lei-
.	.	1A	-i-	.	.	.	.
2F\	-son.	.	.	2e\	.	.	.
=50-	=50-	=50-	=50-	=50-	=50-	=50-	=50-
!	!	!	!	!	!	!LO:TX:a:t=P:problem=# below	!
0E;>	.	0B;>	-son	0e;>	-son.	0g#X;>	-son
*	*	*	*	*	*	*	*Xij
=-	=-	=-	=-	=-	=-	=-	=-
*-	*-	*-	*-	*-	*-	*-	*-
!!!system-decoration: [(s1,s2,s3,s4)]
!!!RDF**kern: > = above
!!!RDF**kern: < = below
!!!EED: Antoni Szymański
!!!EEV: 2021-07-23
!!!ENC: Mateusz Solarz
!!!END: 2021-07-02
!!!YEC: Copyright 2022 Narodowy Instytut Fryderyka Chopina (https://polishscores.org)
!!!YEM: Licence CC BY 4.0 (https://creativecommons.org/licenses/by/4.0)
